packages/icons/src/telephone-fill.svg

<svg width="24" height="24" viewBox="0 0 24 24" fill="none" xmlns="http://www.w3.org/2000/svg">
<path fill-rule="evenodd" clip-rule="evenodd" d="M8.001 1.268C7.707 1.098 7.365 1 7 1H5L4.85 1.005C4.34684 1.04284 3.87659 1.26947 3.5335 1.63945C3.19041 2.00943 2.99984 2.49542 3 3V17L3.005 17.15C3.04284 17.6532 3.26947 18.1234 3.63945 18.4665C4.00943 18.8096 4.49542 19.0002 5 19V19.5L5.005 19.692C5.0541 20.5857 5.44373 21.4267 6.09379 22.0419C6.74385 22.6572 7.60493 23.0001 8.5 23L8.692 22.995C9.58572 22.9459 10.4267 22.5563 11.0419 21.9062C11.6572 21.2561 12.0001 20.3951 12 19.5V19H19L19.15 18.995C19.6532 18.9572 20.1234 18.7305 20.4665 18.3605C20.8096 17.9906 21.0002 17.5046 21 17V3L20.995 2.85C20.9572 2.34684 20.7305 1.87659 20.3605 1.5335C19.9906 1.19041 19.5046 0.99984 19 1H9L8.82 1.008C8.523 1.035 8.245 1.126 8.001 1.268ZM10 19H7V19.5C6.99992 19.8484 7.12115 20.186 7.34285 20.4548C7.56456 20.7236 7.87292 20.9068 8.215 20.973L8.355 20.993L8.5 21C8.87288 21 9.23239 20.8611 9.50842 20.6104C9.78445 20.3597 9.9572 20.0152 9.993 19.644L10 19.5V19ZM7 3H5V17H7V3ZM17 7V5H11V7H17ZM17 9V11H15V9H17ZM13 11V9H11V11H13ZM13 13V15H11V13H13ZM17 15V13H15V15H17Z" fill="black"/>
</svg>

<svg xmlns="http://www.w3.org/2000/svg" width="24" height="24" fill="none" viewBox="0 0 24 24">
  <path fill="#000" fill-rule="evenodd" d="M8.001 1.268A1.994 1.994 0 0 0 7 1H5l-.15.005A2 2 0 0 0 3 3v14l.005.15A2 2 0 0 0 5 19v.5l.005.192A3.5 3.5 0 0 0 8.5 23l.192-.005A3.5 3.5 0 0 0 12 19.5V19h7l.15-.005A2 2 0 0 0 21 17V3l-.005-.15A2 2 0 0 0 19 1H9l-.18.008a1.982 1.982 0 0 0-.819.26ZM10 19H7v.5a1.5 1.5 0 0 0 1.215 1.473l.14.02L8.5 21a1.5 1.5 0 0 0 1.493-1.356L10 19.5V19ZM7 3H5v14h2V3Zm10 4V5h-6v2h6Zm0 2v2h-2V9h2Zm-4 2V9h-2v2h2Zm0 2v2h-2v-2h2Zm4 2v-2h-2v2h2Z" clip-rule="evenodd"/>
</svg>
